mimetypes/scalable/text-x-tcl.svg

<?xml version="1.0" standalone="no"?><!-- Generator: Gravit.io --><svg xmlns="http://www.w3.org/2000/svg" xmlns:xlink="http://www.w3.org/1999/xlink" style="isolation:isolate" viewBox="0 0 256 256" width="256" height="256"><switch><g><g id="application-mimetype"><g opacity="0.2"><path d=" M 78.924321 15.500025 C 43.627596 15.500025 39.829708 19.125398 40.002695 54.49353 L 40.002695 127.500014 L 40.002695 200.506441 C 39.829708 235.874573 43.627596 239.500004 78.924321 239.500004 L 177.081083 239.500004 C 212.377805 239.500004 216.002702 235.875035 216.002702 200.506441 L 216.002702 127.500014 L 216.002702 54.49353 C 216.002702 19.124994 212.377805 15.500025 177.081083 15.500025 L 78.924321 15.500025 Z " id="path1163" fill="none" vector-effect="non-scaling-stroke" stroke-width="4" stroke="rgb(0,0,0)" stroke-linejoin="miter" stroke-linecap="butt" stroke-miterlimit="4"/></g><defs><filter id="sBqXd1Lk7ZVJaq6FFQmwcHaCJ3EcEWFw" x="-200%" y="-200%" width="400%" height="400%" filterUnits="objectBoundingBox" color-interpolation-filters="sRGB"><feGaussianBlur xmlns="http://www.w3.org/2000/svg" stdDeviation="2.120027"/></filter></defs><g opacity="0.1" filter="url(#sBqXd1Lk7ZVJaq6FFQmwcHaCJ3EcEWFw)"><path d=" M 78.924315 16.5 C 43.627592 16.5 39.82971 20.125416 40.002699 55.493531 L 40.002699 128.5 L 40.002699 201.50647 C 39.82971 236.874573 43.627592 240.500001 78.924315 240.500001 L 177.081083 240.500001 C 212.377806 240.500001 215.084425 236.863068 216.002699 201.50647 L 216.002699 128.5 L 216.002699 55.493531 C 216.002699 20.124997 212.377806 16.5 177.081083 16.5 L 78.924315 16.5 Z " id="shadow" fill="rgb(0,0,0)"/></g><defs><filter id="9lK0cl0J3hONb7ec2BSoCV5kB0lKo3RD" x="-200%" y="-200%" width="400%" height="400%" filterUnits="objectBoundingBox" color-interpolation-filters="sRGB"><feGaussianBlur xmlns="http://www.w3.org/2000/svg" stdDeviation="8.4801079"/></filter></defs><g opacity="0.3" filter="url(#9lK0cl0J3hONb7ec2BSoCV5kB0lKo3RD)"><linearGradient id="_lgradient_357" x1="-0.0681490711308741" y1="0.03125" x2="0.9537210324437329" y2="1.0531201035746074" gradientTransform="matrix(176.005396,0,0,224,39.997303,16.5)" gradientUnits="userSpaceOnUse"><stop offset="0%" stop-opacity="0.58823532" style="stop-color:rgb(0,0,0)"/><stop offset="88%" stop-opacity="0" style="stop-color:rgb(0,0,0)"/><stop offset="100%" stop-opacity="1" style="stop-color:rgb(0,0,0)"/></linearGradient><path d=" M 78.924315 16.5 C 43.627592 16.5 39.82971 20.125416 40.002699 55.493531 L 40.002699 128.5 L 40.002699 201.50647 C 39.82971 236.874573 43.627592 240.500001 78.924315 240.500001 L 177.081083 240.500001 C 212.377806 240.500001 216.002699 236.875001 216.002699 201.50647 L 216.002699 128.5 L 216.002699 55.493531 C 216.002699 20.124997 212.377806 16.5 177.081083 16.5 L 78.924315 16.5 Z " id="blur" fill="url(#_lgradient_357)"/></g><path d=" M 78.924321 15.500025 C 43.627596 15.500025 39.829708 19.125398 40.002695 54.49353 L 40.002695 127.500014 L 40.002695 200.506441 C 39.829708 235.874573 43.627596 239.500004 78.924321 239.500004 L 177.081083 239.500004 C 212.377805 239.500004 216.002702 235.875035 216.002702 200.506441 L 216.002702 127.500014 L 216.002702 54.49353 C 216.002702 19.124994 212.377805 15.500025 177.081083 15.500025 L 78.924321 15.500025 Z " id="shape" fill="rgb(195,177,95)"/><g opacity="0.6"><path d=" M 78.924573 15.500025 C 43.627848 15.500025 39.829708 19.126032 40.002695 54.494165 L 40.002695 56.494138 C 39.829708 21.126005 43.627848 17.499998 78.924573 17.499998 L 177.080824 17.499998 C 212.377545 17.499998 216.002702 21.125601 216.002702 56.494138 L 216.002702 54.494165 C 216.002702 19.125571 212.377545 15.500025 177.080824 15.500025 L 78.924573 15.500025 Z " id="highlight" fill="rgb(255,255,255)"/></g><g opacity="0.1"><path d=" M 128.002691 15.500025 L 128.002691 239.500004 L 177.080824 239.500004 C 212.377531 239.500004 215.084421 235.863501 216.002702 200.506787 L 216.002702 127.500014 L 216.002702 54.493184 C 216.002702 19.124648 212.377531 15.500025 177.080824 15.500025 L 128.002691 15.500025 Z " id="right highlight" fill="rgb(255,255,255)"/></g><g opacity="0.2"><path d=" M 156.002703 239.500004 L 216.002702 179.500005 L 216.002702 201.983857 C 215.950394 235.97965 212.200019 239.500004 177.828601 239.500004 L 156.002703 239.500004 Z " id="clip" fill="rgb(255,255,255)"/></g></g><path d=" M 116.276436 53.004409 C 73.826437 53.004409 112.279377 149.930885 132.44114 154.082347 C 128.448498 82.832349 119.717607 60.376466 122.210257 58.347058 C 124.702906 56.32206 135.220557 87.37647 141.044085 154.104411 C 159.882322 144.725002 174.167612 53 127.857319 53 M 141.044085 154.100002 C 137.611732 155.114705 134.510266 154.691173 132.44114 154.077938 L 136.623501 185.944113 L 143.294077 203 L 143.294077 189.072052 L 141.044085 154.100002 Z " id="tcl" fill="rgb(255,255,255)"/></g><foreignObject requiredExtensions="http://ns.gravit.io/"><gravitDesigner:gravitElementRef xmlns:gravitDesigner="http://ns.gravit.io/" xlink:href="#TdMbc4VgLeqssrS57bNaqngOzY70lYYl"/></foreignObject></switch><gravitDesigner:gravitGraphicSource xmlns:gravitDesigner="http://ns.gravit.io/" id="TdMbc4VgLeqssrS57bNaqngOzY70lYYl" version="1"><![CDATA[eMKcw41ZacKTw6JGwrbDvSsTw7jDhcO7w6LDrsKyw7bCpSMmYgQSQgsCwq0IwrkcL8K0L2jDn8OBw5HDv8O9CQrCqsKgw53DrcKpwp7DscKMXRVUQSrDr8ONezPDjzk3M8O5dcO2wo/DmcKnWWnCh8O+w6zDg8Osf2bCn37DvsO1w5IQw5ZFVz7CtMKUdhtNDW5aNMK+N8O7w5TDlsKdw79hVsK2w43DlMOhw6cZbG9SWSk5W1/Dv33DqsO0w4PDtDIASQjDssKBwpNswprDkcKrQVHCtycxw7HCjy7CssKHcR4Zw4jCqcOLanoFXgPCvlrDvsOyw6HDpxnDg8KtM1nDn1guw7DDqsOKw43DmMOFHkDComxlwqRyw4bCugF/GhrChFLCixgOw5rDkcObTl3DjsKhwqXChMKbw4rDtsKBwrQPw7fCrhQUDMOfXAHCncKAYMOIHMKufHFrZsKwMsOKYsKPw7NZIBzCiMKiGTTDpsONw44qwrzDpC3Cm8OIYsOZTsOhZcOLwokQw4DCq8OWw45cw4VcUsOXASjDssK4wrFzwq/DmVxCw5gFw6LDocKWw41lYlTCkj0cXl3DkQPCn8KaYjrDssOiCsKICnMpw7JEdcOIwqfDscOMwojDlWnDncK7ZnPCmcKYwpvDpcOFFcK+w4bDpMO4w4FVVXYnajECMcOew7PDrXrClMKCasKebjptS3lmIxnDpcO2GhUewqLDocKrw6XDmcOVw4I3EsK5fEhQIUEhRT1Gw7RFw4LDmcKFW2gEW8OMUmMtw5HDhE7Cp8O7a1QXw4vCrH9Lw7DDkhA9w4xxQMOQw4hhOcKawqIWYEjCjElkwqfDhGrDrcOEwpBbeMKuK8OAb3bCh8KHZcKWNFzDm3YLKBjDtcK8w4XCmG0Ew6gtw6PCjsKnI8KEwpdNwodqw5dsLsKWFcO3wrbDjMKXwonCiR7DgFfDrRnCtA0wwrVqXSIxwrfDq33DgcOswrRYwoU6w5A1w7Zuwo9fwrPCuUzDjMONw7LCl18+w4xqfwJUO8O7wpR3aXrDuWTDp25Uw5RnwpBPT8ObOsKYw57DgE84TsKiEMKOYBjCgCIkwozCoB/CgMOpw7drw41PGEbCghhIADjCgcKDw5PDr8KHwo8EwoY9woEkAmMYBGEwSMOiwpPDm8Ocw47DvCvDgUAQwoPCp8K4w77Cr2nCi3LDtgl4woLCpsO3wql9w7TDjxHDnGgYw6fCrcO4w5J0T8OPIE7Dk8Otw6vCs8Kzwo9yw4pjwrbDuMOhw6dzcMOAL8OnwpZ+w7ISw5hpw6N/w77DsGLDpBTCtcOnw5fCj2bDjjDDuwQ/wpHClx8ceMO5w4HCscOzwoPDlD3Cm3Rte8OpwpbCpcKzT8OIb8KHw7k8JcO0wr9TwovDi3BUZ8KpecKIwp3DiCpibB3DsEHCvmpiLFfDvG0fw69nwp8nWz8IwrhJS2bCisKgwq19wovCrHdqHcKOw6wCwrU9WSDDhnlow7XDlBF0JWB2C8O4w7dFwqh1SXnCoMKowpTDoW44GMKgOMKHBGnCgcKtw4nCnCdsw5rCi2J5a8KFw6oeO8OWw5rDkHhXSMKhwqvCnzo5wrxawp4hRVF0KMOXNMKxfEPCp8KRwo3DvsKpwrURBjXDhW3CmMKrLsOebMKNesOEXMOOZnVkaMKvwpDCghk8wpAzwogqDsO3wq7DjsK+w5/DkGnCowjDkMOqwrxhLDDCr8KSw6LCogxEGGDDqHp3wpJ0wrtZB292VTjCh8Ofw6guSTnDhxjDq8K0FFHDimAdL3XCiiHDq8O2w6Jiwr5wD8KpQF3Cs8K5woTDkAs9w4XDiFfCglwmZkFRB8O5w6bCqsOEwpXDpsKIw7TDtC7Dm8ONI8OTKcKCwo3CklQQfcKqVQckcsO9JsKpLxNzwrXCvEjCo8Kiw43Cv3DDpcKgDC5GE8KGS8OXNWTCjV0Jw6PCiMOiwrvDkmR9dMK3w6DDlWtUc8KIPsK8Wl4TLGTDrCHDgcK6IgfDnl0VwoUsw4XCgsOpwpljworCosKOw47DtA7DnWYOw57Dn0QIwp9rwrkMZ8Oda8KCF1fDg8ODHGPDusKBw6pRJMOMwpPCo8Omw7AIwrrDoMKUwp3CjgbDqEDDmSbClcO2w5XCmx3DvsKww4xHQmxOwqHCh0nDtBHCt2rCoQdKwotLKCRHY0tUNzFxw43DpmLDuRPDucOTw6sywr9Mw4wDw7gYw4lvPMONw7DDiUN4woRWNgMswoo6czJuwptiw6Q2ZcKXw5dsXibDpgbCvnfCihDDsMKEXsK5CUBnw5VBwrHCiwh9wqXDuSPCiE5sw4ZhAAQgDMKEIALChD98woTCgCfDpMOCcAxGQHTDkirDpE3Ch8Kaw4jDtsKKw6FewoXDgD9OwoXDvsKZw7LCgE/Ct8O4AcKUBFAUwoTDnsKtPA8Cd1UhwqUNw6QlYx/ConzCpcOYScK+w7HCgyVqO2xvw7gaD8ObOXxTwqFbXsOTW8OfbR9zcsOSwq5mLsOtZ8KETkM/wpEwwo7DgTB5FnUMB29jwq0zwo7CrcOYw5RcRcOSGsOsGsKOw4/CmsODw5YVw6PCrRttQ8K2w6Bnwp/Dv1UVa3EaOcOuwoE9woHDosORQcKGw7YSVcKJwqMTIyTDgMOjOS/CsMOfwqFiIjkAwpIzCEfCgTJOwqY3wpTClsKraMK4w5fDtMO2wrHDgcKWw45tw7PDsR4Va8Oow4PDjsOgwrfCnMKqw6PCukMawpzCu0t6wqjDs1Eaw5zDmQjDpFXDn1Ixw4fCsjMLN3J+QW/CtnzCuGjCgVV1QsKQwoICdQPChsOjw5vCpsOlPSp2VHQLUDxrP8KoPmgIw6PCikUcwoxVHcKVwoctwq9nw5bDn8KhYj3CucOfw4AGSXHCm8KdwoAwA8KJwqBLU8KlQMKOwrEcwp4Nw6rDsDtUw6xgZ0LCqmzCmsKROQp7BcKOUWoTb2LCrjMRN8Olw6dwfMKNw6pFwrQWw4PDr8Kpw5gWw4QkMcODwqgwRiQ+BsOEw7nDjl4qw7nDoBjCqcOrw7nCkRN+S8OFED8eGiILwrfCtU5qwpxiSAfCh8OWEcKnGhPDj8KHE8Oge1TDjFUSwppswpxabsOMAkjClWhxw6B7LCtCwrlsNcKvW8K4f1EVO8Kzw7Zew4PDoHdrw5h/WsKaPsO8wq5Uwoo/w7zDujxrwp7Dj8ODIQgKIhDCik5YJAjCgCA+PMOPwoJxesOyEXgCMALCnMOowo/CgyAMEDgCwp4fHcKfw495AjAIwqHDk8OHc8OHwp8nV8Olwrl1w7rDrE7Dv8Kfw59CesKeTW3DhcOFYnIOw4EoDE3CgV3Cuz9dw4bDusKmw4VrR8Owd3rCnWXDsXlWwp/Dg0XCp1XDgsOPYsKJw4A4AcKBMMOxw7l1wpfDmBQywqEWwqnCicOAwrnDgDvCkUzCm8KJb8KuBMKvw6NrXjbCvMO8X8ORZ8KQfMOCUQDChcORacKOSAxCEcOsNsKaJTfCtMOZeFRiwrkyBi4wwqU9w7LCp8KVw4fCm8KcCMO4w7taf8KvQsO/w7bCsMK7w64Cwr3DhhBvOcKxwqtYIcKqSyNEw6FAJxPDhsKKHkHDlsKzw7cfdknCkTNla1gywoTCuRlhRMOwUFIuw4PDgFbClsOIBsOpw53Dmx7DqD3Ch8OdacObwp3CssOzw5DClcK8XcKnagLDj0PCkVwiO8OOwpEjOlfDkcO6W8KHXcOgNMORGHFXw4w6HC3CqMO0esKlw44xYVU5w4DCuhPDtsK4MHvDv2E3w5VpSELDhsKVQBgiwqDCh0zCtMOyCsOTX2fCmcKhwpw2RsOjw4/Dnn/DmC0HwqDDt8Oow5TCh8OkwpXCshfCo8KhMMKaMcKbwqMsGS7Ch13CqcOUwrPDtx92wo9Uw4/DmsOZdAR3wrvDuMKED8Klw5rCrsKQaCUdwo5SK3XCgmbDjMOef8OYBXfCkhIqwpYMbzLCicOPIMK/w415asK+D0bCrMOpwpNTwp8Gw586w6zCukl/w5hbPTvCgDkJwqcuwq81S3zCq2cww5YYwpUYwpTDu8OZw7sPwrtkfcK0YsKew51IwpjCmsOXISLDpMKUwr8zw5sUZTbDimnCiQjDtsOsL3jDmMKdNsKZw6V5w7HDv8OtfSVIwqIfQBzDv0DCom9nw48ywofDsDxoBsKxwrZsZDQ2DFZAZkUdwohlbSXDisK8eTh7ZsOQw7IQL8Kbw5oFw7olwoXCrsO3aMK/QAAEw7fCosOcFFrCucORw553w7bCvMKww4g3wrjDuG3ChXdsCMKOwqnCqcKCw6LCscKQKiAvK8OYwrbCosOtVgN9QcOlw5zDqFvDrMObLcKWwpkqLcO6YcOldCbDiBQLWcOIF0HCuTvCgcKjwrMLwrjDhXfCsC93wqpWPhbCgRXDkn3CgMOEwpwpw40TURrCmsKWDsKLRMKhwrTDr2DDnzjDkMKUJjcNSnFbwqbDj2RyK8OWwowQw7U5woMmO2DCt8O+DsO2w4XCpcOeecKaUxjDrAIrfRHDncO4a8KywopQwoZOERnCpMORw7nDr8Kywq97wpjDo8KGwpLClVU/woVewojDkiIlw7V2wpstNsKgBsONFTrDoVwmw7jDs3DDnsOHwrfCgsO/worDucOWDmd/w7DDncOOwrQ7w7hwfcO9wqnDsMKnBMO1w4vCksKILsOHbMONw6zCk2M5J8OUE1PDoMKlwrJGwo/Di0jCmsOXw5k+wpDCoitgBsOywqslEcK7w5fDisK0J8OmR8KrwrUswoM2w5bDmMKKw4t0dR3DjcKFwp3Cp3fCocKWA8OhfUl0w6QvSsKiwqvChx7Ds8OqasKfGMOow67CpEvDlX7CqcO3wp7CgMK0IxUPwppxwqjCi27DjcOiO8Olwp5casK/fHV1ScOQWm3DrxJ0wo3CvX5aLDfDlAoZwoXCtQTDplDCj3fChhjCicKyw4HDhMOgwoHCuEZ1ScOwZnl2dXImcsKVD8KuWmNwD8O6EMKAW8OSw53CosKjwqLCl8KHZGEHwoRDwpbDvcOAJsOJw61IRE3DpCrDr1xdGMORPCTDqMKuIW1gwprDiHTCpUDDmRPDu8OjdsKlZHjCsy0qEsOrwoNBwrgnV8Kswr0lw7hSwqIewqbCnVkjTcKmwovCpcOtw6rCuWI1w4PDiVwXw5TClsKtw7jDlcKqwpbCuBZ6KFHDg8ObwrRfEnwsUXDCtcO2wrLCpEFNUcODw5N+FwfCnAYudE3CmHbCtsOMw4kLbit4ScOwwq9SwqLCojjCjMOSw6nDlcOewpMWw7vDg0nDu08uRMKAw6tVLAnCvcKcwolAw7LDn8K6EMKJNGRFC8OLw4Elw4TCmk/ClsORw4EcW8KDWcKzWxxeU8OJVMKUw67CtcKhbcOawq0oC8KVDVhxwoXCkMOswq7CpMOjw5PDjlzDpXvDuMOIW8Kpw7A+bUAbwo7DvQIOwocVwqoAGkwswppwwo7DssKwwqPDpMKtwqQYIMKSw6LCnMOqRcKFdcKBw5HDhcOuwrEIwrXCncKXwqgVw47Du8KVwpkGCS3DocOZw5HCgsK3wqJkwpZAwrgLG8O2DX7Cj3bDjsKyVsKAw4E3wo7ClsKCNVxewoQOwqIvQsOWPBjChMKzOkTCt8KLU2jDuGrDsQLDrsKLV0IwLsKQwqZrQVJWBsKPwrNbw4UYwrLCvFLCu8KswqcRw4/CrMKuSMOedmMswofDgcOvbh13MsOsd8OlwrYow7fDng7Dq2nCpTBDbU0DwovCkyLDk8KLRMOhw5/DrBLDqEEOCcK0cTvCmC1iPlLCu13ChRXDtcOWwqAPw5s0OlkIFg/Dt8K8LH/Cn8KXwq5Zw6PDu8KUXAbDlcKRwq7DucOOwpXCqzDCkTrDqgRzDAQYHn/DjcOmMjF/FV7DlmdOw77DrcKrw6zDvCMuKsO/THbDqkHCjcKqNcKtwrBrFl0hw4xpYghFw4PDtDbCo2hbChbDnQM7w6vCucODIyswwqjDrFTCksOXMsKBVsObQAJWS37ClcO0w4zChg7CvmPDo8O6eGzCrMKKwrlAwqdHfMK1w7PDqkNTwozDmlIGThbCvRnCkcOccMKIw4jCvMObwrg+UGPCqMKSBMO3JHHDnMOmQcKgGz7CuQpJMFfDiG7DglfDr8Ouw7jCh8KNa8O9RsKNS219w5zCuCZ7wrXDoMKrw71YwqzCqMO6MMK0w6NJU8OXwoYswqhRSsKLRg3DlVdcwo7Dkhcbw5fCr3DCv1grw6gJwpRjOBLCisK4WMKpSiF5wqzDr8KObTHDilHDlHDDn8OBfcOfwqdxDcOcwrULIjjCpTjCv8KSccKJagnDrUDDjB3Ct8OMw7bDqHdwP8KOaFvCtMKCLcK8IiXDtMK0EMKZZsOCwovDiy1rQjhxWcKZw77CpTbCrk7DkcK2RcO2dcOKw73DscK7w5jDvy7DpRZDwr5WCxJpwr0YClQac8KyUi1wbyFNO8KWwpPCiEEPwpRDd8Ohw5IPBMKAF8OHwqQDwpYFw5fDjcKPw7bCvMKQT8Kxw6dUwr7CuXkfw6UWO8O9w7AFSHEWXUTDqy7Ch1vCuU/DgcOMIcO9esOvwqjCuTQqw648BsKhw7ENRjHCucKLw6/DrHRjw6UFVMOaScOpWFDDizbChmLDpjDCpsOEEjI3C8OYd8Oew6wqaXvCh2QewpDClkc9VlPCtMOeSGs/w6nDoy7Dh8OrEsOuw6LDsQQJw7DDrRsFw5jCsxLCuXc2wq9IwrZyBMO/InQ3w7LDlisJPsOYwpvDhAIzwp3CkgNLw5XDo8KtwqvDu3AmwrJNw7PCug1GwoM3fsO9w4klw4RNw6PDsk8FMX4FMcOycsKfDMKiw78WwobCsyoDClgwdsKdw5zDi8O7IMOewrlUw4jDoMO0wrTCtTvCpRIrw7oPGBZwP8KxezdWIldBUAlcI8KkcFxawpXDqsOXLcOFw67Dq8OLMcOyPzvDvXZZwqbCsWvCt3HCkX/DjMOiw4xvwo8vd0HCtxAjYFxqOsOIw5ICZXM8w4UywoXCuCkYP2zCosKewrPCq33DtDrCvW7CkcKVRcKXe1fCusO5wr3CnxfCnsO3Kl/Dp8OmM8KeZsK/PsOPw75xwrnCpz7Ct1zCrsKoJy7Cni/DiH9+wp55OF7DiTJFVQzDs8O3w4vCox8uf1cpBjt8WsOswrJ4wo1bwoomwq/DllrDj2DCkcOBVWUJbsObwpdOwpfCv8KTwoB4bx4mwpo8w4/ChMOBZcOkFjrCiAB3w6/DlBzCqmoxJwjDg8K1QlQ8wqbDncOSw4HCrMOaw43DjMKpAMKmw6bCkcK9dHoJw7DDhxxPZD3CicKEwpvCh8KXwrFcKMKkw6TDgsOdw4HCh8OXwrHDpsOFairCgsOsw5DDqA8Jw6hgUcKiViRWw4TCqMOXwqlVV2DDkcOswrXDjsOccBwEw6fCsn03FsO6Uz/DiMKaw6HCtzcPL2PDscKywoPDicOKwoHCqcOfw4bDulFawotyfyzCv8OIw4vDocOnw4tdwqDDu8Ogw7LCpHdOCCZpJ8KUWDlvw45Xw6BFE8Oewo3CpRYDK8O3wpHChh4ew4ZyfwxdwrnDnxfDvMOFw7FlwqxpYX7CkgPCjSzCgcKHwrzCvMKjwrQmInXCmcOBSFnCkjnCkTQmccOSa0kkw5ADw5tZw5DDnVjCgjfClHJ/w7PDsMOLw6ULwonCi8OqPF9lw6fDuU53wp4vw4LDs3zChsO+w7ktw7LChMKAIMKOITjDsMOyw70IdMKBw75vWz/CgsOwEzjDsQHDh2ESIgkEw4TDiQ8fYcOyCUMgDCERAsKCcAJCwpDCs8OnwrPDhHDDngXCh8KxaRNsFhtkw4IMwrHDpMKLw6nDklJ0YsOuwqPCpifCqcOKwpLCvsKEw7/DgsKHS3/DmcOiMR3CiRDCusKKwoHDicKQHDnCgsKxwrPCk8KIw7TCnjwvw4PDg8Ozw6zDs8KEw7/Dn8OCw7zCpQA9XyvDkD3DrF9Ww5Iuwr5YSTBDW0LCp0V7wr1bwrLCqD3CunTCsDjCnsK2wonDoDbCilMswoTCuyXDk0TCl8KTw7NOXzPDnCPDrMO9w6QLwqfClcK9wqvClsKyLsKBw7suwpnCjl3CgcOKw5MYa8K6Q8OWUlTDpMO1w4jDncKSOcK+wrvClGPDoHjDpxTCl8KYwpXCnMKwwpzDhjw4XcOvw5nDpUDDuxkNWMOUwoJvDwoBG8KQF1bCusOGw5bDugnCs8Kuw5bCksKHSHJfw7/CuHsMacK5wrNHwqsAN8KSwoINwq19w6AdTBV1Pl80wpvCk1HCqcK4eW/CnRjCvsO2aC0AXsOYJsKBPsKPw5rCoRPDgcKMd8O1JBAdNUlUwpTDhkbDq8KvBTYfCQPCiAxWKsOIwqJawqA7DMOVJsOYw5gkw7IuJVfDu33DviXDmEZNX8OER8O7AA7Cpm/DhMK6wrE5dDlpWsOdYX3CtChrwoHCnMOBw7bDi8K3SsO2H8Kew4rDq8OtwqnCm8OOw77Cq2XDul8uw4c9Zx1Iwo8pw6sWJXfDuEbDncKpbEjCtnRew7VeFgvDmcOuwqEcw6vCsCfDuCXCrHsdecOgNcKRHhzCssOnw6F8wo5zIsKmwpFDeSnDhz9MHcKJVcKRZVVJWcO4wro+csKuwopCwrBDIhvCoBt7wo4Zw41zw4zDk8OGAkLCscOzfsOrw6V/ccO+w6LDtMK8NMKOe8O4SsO2U8O7ZcO7w7M6w4VbO8O0w78Gw44+w78/fsOGw4jCoA==]]></gravitDesigner:gravitGraphicSource></svg>

<svg xmlns="http://www.w3.org/2000/svg" xmlns:xlink="http://www.w3.org/1999/xlink" style="isolation:isolate" width="256" height="256"><switch><g><path d="M78.924 15.5c-35.296 0-39.094 3.625-38.921 38.994v146.012c-.173 35.369 3.625 38.994 38.921 38.994h98.157c35.297 0 38.922-3.625 38.922-38.994V54.494c0-35.369-3.625-38.994-38.922-38.994H78.924z" fill="none" vector-effect="non-scaling-stroke" stroke-width="4" stroke="#000" opacity=".2"/><defs><filter id="a" x="-200%" y="-200%" width="400%" height="400%" filterUnits="objectBoundingBox" color-interpolation-filters="sRGB"><feGaussianBlur xmlns="http://www.w3.org/2000/svg" stdDeviation="2.12"/></filter></defs><path d="M78.924 16.5c-35.296 0-39.094 3.625-38.921 38.994v146.012c-.173 35.369 3.625 38.994 38.921 38.994h98.157c35.297 0 38.003-3.637 38.922-38.994V55.494c0-35.369-3.625-38.994-38.922-38.994H78.924z" opacity=".1" filter="url(#a)"/><defs><filter id="b" x="-200%" y="-200%" width="400%" height="400%" filterUnits="objectBoundingBox" color-interpolation-filters="sRGB"><feGaussianBlur xmlns="http://www.w3.org/2000/svg" stdDeviation="8.48"/></filter></defs><g opacity=".3" filter="url(#b)"><linearGradient id="c" x1="-.068" y1=".031" x2=".954" y2="1.053" gradientTransform="matrix(176.0054 0 0 224 39.997 16.5)" gradientUnits="userSpaceOnUse"><stop offset="0%" stop-opacity=".588"/><stop offset="88%" stop-opacity="0"/><stop offset="100%"/></linearGradient><path d="M78.924 16.5c-35.296 0-39.094 3.625-38.921 38.994v146.012c-.173 35.369 3.625 38.994 38.921 38.994h98.157c35.297 0 38.922-3.625 38.922-38.994V55.494c0-35.369-3.625-38.994-38.922-38.994H78.924z" fill="url(#c)"/></g><path d="M78.924 15.5c-35.296 0-39.094 3.625-38.921 38.994v146.012c-.173 35.369 3.625 38.994 38.921 38.994h98.157c35.297 0 38.922-3.625 38.922-38.994V54.494c0-35.369-3.625-38.994-38.922-38.994H78.924z" fill="#C3B15F"/><path d="M78.925 15.5c-35.297 0-39.095 3.626-38.922 38.994v2C39.83 21.126 43.628 17.5 78.925 17.5h98.156c35.297 0 38.922 3.626 38.922 38.994v-2c0-35.368-3.625-38.994-38.922-38.994H78.925z" fill="#FFF" opacity=".6"/><path d="M128.003 15.5v224h49.078c35.297 0 38.003-3.636 38.922-38.993V54.493c0-35.368-3.625-38.993-38.922-38.993h-49.078z" fill="#FFF" opacity=".1"/><path d="M156.003 239.5l60-60v22.484c-.053 33.996-3.803 37.516-38.174 37.516h-21.826z" fill="#FFF" opacity=".2"/><path d="M116.276 53.004c-42.45 0-3.997 96.927 16.165 101.078-3.993-71.25-12.723-93.706-10.23-95.735 2.492-2.025 13.01 29.03 18.833 95.757C159.882 144.725 174.168 53 127.857 53m13.187 101.1c-3.432 1.015-6.534.591-8.603-.022l4.183 31.866 6.67 17.056v-13.928l-2.25-34.972z" fill="#FFF"/></g><foreignObject requiredExtensions="http://ns.gravit.io/"> </foreignObject></switch> </svg>
